X:45
T:Girl I Left Behind Me,The. JaW.045
T:Brighton Camp,aka. JaW.045
M:C
L:1/8
Q:1/4=100
S:James Winder Ms, Lancashire, 1835-41
R:.Country Dance
O:England
A:Wyresdale,Lancashire
Z:vmp.Chris Partington, Aug 2004
K:C
c’2|g>f e>d e>c A>B|cc c/d/e/f/ a>f ec’|\
g>f e>d e>c A>B|Bd G>B c2c:|!
|:c|eg ab c’g ec|eg ab c’b c’2|\
ag ed e/d/c/B/ Ac|Bd GB c2c2:|

